public/images/pool-finished-sash.svg

<svg width="135" height="135" viewBox="0 0 135 135" fill="none" xmlns="http://www.w3.org/2000/svg">
<path d="M45.2548 23L112 89.7451L112 135L2.91853e-05 23L45.2548 23Z" fill="#7645D9"/>
<path d="M40.0349 49.5201L47.3209 42.2341L52.6157 47.5289L51.2128 48.9318L47.7395 45.4585L46.2122 46.9858L49.2669 50.0405L47.8413 51.466L44.7866 48.4113L41.8564 51.3416L40.0349 49.5201ZM52.7812 49.8439L54.1501 48.475L56.13 50.4549L54.7611 51.8238L52.7812 49.8439ZM46.717 56.2022L50.7334 52.1859L49.9414 51.3939L51.4462 50.206L53.9012 52.6611L48.5385 58.0238L46.717 56.2022ZM50.0387 59.5239L55.4014 54.1612L57.0984 55.8582L56.6911 56.3787C57.0607 56.4466 57.468 56.5899 57.913 56.8086C58.3656 57.0198 58.7804 57.3139 59.1575 57.6911C59.8514 58.385 60.1908 59.0562 60.1758 59.7049C60.1607 60.3536 59.8062 61.0248 59.1123 61.7187L55.6729 65.1581L53.8514 63.3366L57.1437 60.0443C57.4454 59.7426 57.5962 59.4635 57.5962 59.2071C57.5962 58.9507 57.4303 58.6565 57.0984 58.3246C56.9023 58.1285 56.6572 57.9739 56.363 57.8608C56.0689 57.7476 55.786 57.6911 55.5145 57.6911L51.8602 61.3454L50.0387 59.5239ZM63.6799 60.7427L65.0489 59.3737L67.0288 61.3536L65.6598 62.7226L63.6799 60.7427ZM57.6158 67.101L61.6321 63.0846L60.8402 62.2926L62.3449 61.1047L64.8 63.5598L59.4373 68.9225L57.6158 67.101ZM62.8155 72.527C62.3856 72.097 62.0084 71.6596 61.6841 71.2146C61.3598 70.7696 61.1297 70.3887 60.994 70.0719L62.3856 68.6803C62.5364 69.0574 62.7551 69.4496 63.0417 69.8569C63.3284 70.2642 63.6074 70.6036 63.879 70.8752C64.2033 71.1995 64.4522 71.4182 64.6257 71.5313C64.8067 71.652 64.9651 71.6445 65.1008 71.5087C65.2517 71.3579 65.2442 71.1241 65.0782 70.8073C64.9123 70.4905 64.6898 70.0493 64.4107 69.4836C64.0939 68.8198 63.9204 68.2466 63.8903 67.7639C63.8752 67.2812 64.0939 66.8135 64.5465 66.361C65.0744 65.833 65.6741 65.6256 66.3454 65.7387C67.0317 65.8519 67.8086 66.3421 68.676 67.2095C69.0154 67.5489 69.3246 67.911 69.6037 68.2956C69.8828 68.6803 70.094 69.0122 70.2373 69.2912L68.8683 70.6602C68.7552 70.351 68.5855 70.0379 68.3592 69.7212C68.1329 69.4044 67.9104 69.1366 67.6917 68.9179C67.4126 68.6388 67.1562 68.4201 66.9224 68.2617C66.7036 68.1033 66.5301 68.0882 66.4019 68.2164C66.2586 68.3597 66.2624 68.5672 66.4132 68.8387C66.5716 69.1027 66.7866 69.4987 67.0581 70.0266C67.3523 70.5772 67.5408 71.0449 67.6238 71.4295C67.7143 71.8067 67.7068 72.1461 67.6012 72.4478C67.4956 72.7495 67.2882 73.0549 66.9789 73.3642C66.4434 73.8997 65.8211 74.0996 65.1122 73.9638C64.4032 73.828 63.6376 73.3491 62.8155 72.527ZM66.6906 76.1758L74.316 68.5504L76.1375 70.3719L73.4788 73.0306C73.8333 73.0834 74.2067 73.2154 74.5989 73.4266C74.9986 73.6302 75.372 73.9055 75.7189 74.2525C76.4355 74.969 76.79 75.6629 76.7824 76.3342C76.7824 77.013 76.4317 77.7032 75.7303 78.4046L72.3248 81.81L70.5033 79.9885L73.7843 76.7075C74.0935 76.3983 74.2482 76.1155 74.2482 75.859C74.2482 75.6026 74.0822 75.3084 73.7504 74.9766C73.5542 74.7804 73.3091 74.6258 73.015 74.5127C72.7208 74.3996 72.438 74.343 72.1664 74.343L68.5121 77.9973L66.6906 76.1758ZM76.4528 86.1643C75.5176 85.229 74.9971 84.2485 74.8915 83.2227C74.7935 82.1894 75.2121 81.2051 76.1474 80.2699C76.9997 79.4176 77.9123 78.9726 78.8853 78.9348C79.8583 78.8971 80.8124 79.3459 81.7476 80.2812C82.5999 81.1335 83.0412 82.0122 83.0713 82.9173C83.1015 83.8224 82.747 84.6445 82.0079 85.3837L81.0462 86.3453L77.2448 82.5439C76.9733 82.9814 76.9167 83.4226 77.0751 83.8676C77.2486 84.3126 77.5993 84.7991 78.1273 85.3271C78.4214 85.6212 78.7457 85.8928 79.1002 86.1417C79.4623 86.3981 79.7866 86.5867 80.0732 86.7074L78.8853 87.8953C78.5081 87.7595 78.1159 87.5408 77.7086 87.2391C77.2938 86.945 76.8752 86.5867 76.4528 86.1643ZM78.297 81.4917L80.5144 83.7092L80.752 83.4716C81.016 83.2077 81.1442 82.921 81.1367 82.6118C81.1367 82.295 80.9481 81.9481 80.571 81.5709C80.1336 81.1335 79.7376 80.9185 79.3831 80.9261C79.0361 80.9261 78.6741 81.1146 78.297 81.4917ZM82.3572 92.0686C81.8367 91.5482 81.4747 91.0202 81.271 90.4847C81.0674 89.9492 81.0561 89.3948 81.2371 88.8216C81.4257 88.2408 81.8405 87.6299 82.4816 86.9888C83.1303 86.3401 83.7865 85.9102 84.4502 85.699C85.1215 85.4803 85.7664 85.4539 86.3848 85.6198C87.0184 85.7858 87.5916 86.1252 88.1045 86.6381C88.3836 86.9171 88.6023 87.1962 88.7607 87.4753C88.9267 87.7619 89.0473 88.0636 89.1228 88.3804L91.6344 85.8687L93.4559 87.6902L85.8305 95.3157L84.2579 93.7431L84.6086 93.1887C84.2013 93.1585 83.8129 93.0567 83.4433 92.8832C83.0812 92.7022 82.7192 92.4307 82.3572 92.0686ZM84.2013 91.2654C84.6011 91.6651 85.0762 91.8688 85.6268 91.8763L87.7991 89.7041C87.7764 89.2138 87.5652 88.7688 87.1655 88.3691C86.7808 87.9844 86.3396 87.8373 85.8418 87.9278C85.3591 88.0183 84.8537 88.3276 84.3258 88.8556C83.8129 89.3684 83.5677 89.8021 83.5904 90.1566C83.6205 90.5187 83.8242 90.8883 84.2013 91.2654Z" fill="white"/>
</svg>

<svg xmlns="http://www.w3.org/2000/svg" width="135" height="135" fill="none" xmlns:v="https://vecta.io/nano"><path d="M45.255 23L112 89.745V135L0 23h45.255z" fill="#7645d9"/><path d="M40.035 49.52l7.286-7.286 5.295 5.295-1.403 1.403-3.473-3.473-1.527 1.527 3.055 3.055-1.426 1.425-3.055-3.055-2.93 2.93-1.822-1.822zm12.746.324l1.37-1.37 1.98 1.98-1.37 1.37-1.98-1.98zm-6.064 6.358l4.016-4.016-.792-.792 1.505-1.188L53.9 52.66l-5.363 5.363-1.822-1.822zm3.322 3.322L55.4 54.16l1.697 1.697-.407.52c.37.068.777.21 1.222.43.453.21.867.505 1.245.883.694.694 1.033 1.365 1.018 2.014s-.37 1.32-1.064 2.014l-3.44 3.44-1.822-1.822 3.292-3.292c.302-.302.453-.58.453-.837s-.166-.55-.498-.883c-.196-.196-.44-.35-.735-.464s-.577-.17-.85-.17l-3.654 3.654-1.822-1.822zm13.64 1.22l1.37-1.37 1.98 1.98-1.37 1.37-1.98-1.98zM57.616 67.1l4.016-4.016-.792-.792 1.505-1.188L64.8 63.56l-5.363 5.363-1.822-1.822zm5.2 5.426c-.43-.43-.807-.867-1.13-1.312s-.554-.826-.7-1.143l1.392-1.392c.15.377.37.77.656 1.177s.566.747.837 1.018c.324.324.573.543.747.656.18.12.34.113.475-.023.15-.15.143-.385-.023-.7l-.667-1.324c-.317-.664-.5-1.237-.52-1.72-.015-.483.204-.95.656-1.403.528-.528 1.128-.735 1.8-.622.686.113 1.463.603 2.33 1.47.34.34.65.7.928 1.086s.5.717.634.996l-1.37 1.37c-.113-.31-.283-.622-.51-.94s-.45-.585-.668-.803c-.28-.28-.535-.498-.77-.656-.22-.158-.392-.174-.52-.045-.143.143-.14.35.01.622l.645 1.188c.294.55.483 1.018.566 1.403.1.377.083.717-.023 1.018s-.313.607-.622.916c-.535.535-1.158.735-1.867.6s-1.475-.615-2.297-1.437zm3.875 3.65l7.625-7.625 1.822 1.822-2.66 2.66c.354.053.728.185 1.12.396.4.204.773.48 1.12.826.717.716 1.07 1.4 1.063 2.082 0 .68-.35 1.37-1.052 2.07L72.325 81.8l-1.822-1.822 3.28-3.28c.31-.31.464-.592.464-.85s-.166-.55-.498-.882c-.196-.196-.44-.35-.735-.464a2.36 2.36 0 0 0-.849-.17l-3.654 3.654-1.822-1.822zm9.762 9.99c-.935-.935-1.456-1.916-1.56-2.942-.098-1.033.32-2.018 1.256-2.953.852-.852 1.765-1.297 2.738-1.335s1.927.41 2.862 1.346c.852.852 1.294 1.73 1.324 2.636s-.324 1.727-1.063 2.466l-.962.962-3.8-3.8c-.272.438-.328.88-.17 1.324.173.445.524.93 1.052 1.46a7.32 7.32 0 0 0 .973.815c.362.256.686.445.973.566l-1.188 1.188c-.377-.136-.77-.355-1.177-.656-.415-.294-.833-.652-1.256-1.075zm1.844-4.673l2.217 2.218.238-.238c.264-.264.392-.55.385-.86 0-.317-.19-.664-.566-1.04-.437-.437-.833-.652-1.188-.645-.347 0-.71.188-1.086.566zm4.06 10.577c-.52-.52-.883-1.048-1.086-1.584s-.215-1.1-.034-1.663c.19-.58.603-1.192 1.245-1.833.65-.65 1.305-1.08 1.97-1.3.67-.22 1.316-.245 1.935-.08.634.166 1.207.505 1.72 1.018.28.28.498.558.656.837.166.287.287.588.362.905l2.512-2.512 1.822 1.822-7.625 7.626-1.573-1.573.35-.554a3.29 3.29 0 0 1-1.165-.305c-.362-.18-.724-.453-1.086-.815zm1.844-.803c.4.4.875.603 1.425.61l2.172-2.172c-.023-.5-.234-.935-.634-1.335-.385-.385-.826-.532-1.324-.44-.483.1-.988.4-1.516.928-.513.513-.758.947-.735 1.3.03.362.234.732.61 1.11z" fill="#fff"/></svg>
